
#Title		UwULMAO
#Composer	NinaDUHH
#Arranger	NinaDUHH

#Filename	.M
#Zenlen		72
#Tempo		60

 #FFFile 	
 #PPZFilename	
 #Include	
 #PPZExtend	
 #Detune		Extend

 lead synthNinaTest
@000 004 005
 031 001 001 001 005 026 000 001 002 000
 031 004 003 008 010 000 000 000 003 000
 031 001 001 001 005 020 000 001 006 000 
 031 004 003 008 010 004 000 000 005 000


A @0D0p3v15o5l8q0T100
A eefggfedccdee4d12d4
A eefggfedccdee4d12d4